svg/fluentui-system-icons/ic_fluent_replay_20_regular.svg

<svg width="20" height="20" viewBox="0 0 20 20" fill="none" xmlns="http://www.w3.org/2000/svg">
<path d="M2.99985 6.49997L3 3.5C3 3.22386 3.22386 3 3.5 3C3.77614 3 4 3.22386 4 3.5V4.70712C4.84191 3.75214 5.91369 2.99357 7.14446 2.52475C7.85525 2.25305 8.61475 2.07978 9.40629 2.0217C10.2767 1.95622 11.1287 2.034 11.9375 2.23622C15.4196 3.10238 18 6.24985 18 10C18 10.029 17.9998 10.0581 17.9995 10.087C17.9961 10.441 17.9692 10.7906 17.9202 11.1344C17.6504 13.0351 16.7125 14.7209 15.3519 15.9463C14.8422 16.406 14.2711 16.8023 13.6495 17.1209C12.696 17.6106 11.6313 17.9144 10.5032 17.9844C9.47799 18.0503 8.47953 17.9176 7.5486 17.6174C6.75531 17.3623 6.01605 16.9868 5.35236 16.5122C3.64045 15.2903 2.41114 13.4 2.08339 11.1593C2.07981 11.1348 2.07633 11.1103 2.07296 11.0857C1.99882 10.5444 1.98067 10.0079 2.01426 9.48208C2.03186 9.2065 2.26953 8.99737 2.54511 9.01497C2.82069 9.03258 3.02982 9.27025 3.01222 9.54583C3.00353 9.68186 2.9988 9.81878 2.99813 9.95645C2.99937 9.9708 3 9.98533 3 10C3 13.1002 5.01541 15.7297 7.80751 16.6498C8.49717 16.877 9.23423 17 10 17C10.1463 17 10.2916 16.9955 10.4358 16.9867C10.6061 16.9758 10.7772 16.9587 10.949 16.9352C11.7861 16.8205 12.5682 16.5623 13.274 16.1887C15.7974 14.8531 17.3442 12.0431 16.9342 9.04998C16.5332 6.12245 14.3763 3.86706 11.6716 3.20085C11.136 3.0696 10.5761 3 10 3C9.82476 3 9.65102 3.00644 9.479 3.01909C9.33617 3.02986 9.19276 3.04505 9.04894 3.06475C8.5281 3.1361 8.02859 3.26296 7.55552 3.43859C6.21154 3.93946 5.06273 4.84155 4.25465 5.99997H6C6.27614 5.99997 6.5 6.22386 6.5 6.5C6.5 6.77614 6.27614 7 6 7H3.5C3.46438 7 3.42962 6.99627 3.39611 6.98919C3.16975 6.94143 2.99985 6.74054 2.99985 6.49997ZM7.5 7.96702C7.5 7.03638 8.48059 6.43209 9.3119 6.85043L13.3518 8.8834C14.2692 9.34509 14.2692 10.6549 13.3518 11.1166L9.3119 13.1495C8.48059 13.5679 7.5 12.9636 7.5 12.033V7.96702ZM8.86238 7.7437C8.69612 7.66003 8.5 7.78089 8.5 7.96702V12.033C8.5 12.2191 8.69612 12.3399 8.86238 12.2563L12.9023 10.2233C13.0858 10.131 13.0858 9.86901 12.9023 9.77667L8.86238 7.7437Z" fill="#212121"/>
</svg>

<svg xmlns="http://www.w3.org/2000/svg" width="20" height="20"><path d="M3 6.5v-3a.5.5 0 0 1 1 0v1.207a7.978 7.978 0 0 1 5.406-2.685 7.96 7.96 0 0 1 2.531.214 8.003 8.003 0 0 1 1.713 14.885 7.952 7.952 0 0 1-3.147.863 7.95 7.95 0 0 1-5.15-1.472 7.977 7.977 0 0 1-3.28-5.426 8.034 8.034 0 0 1-.059-1.604.5.5 0 1 1 .998.064A6.973 6.973 0 0 0 3 10c0 3.1 2.015 5.73 4.808 6.65a6.995 6.995 0 0 0 3.141.285 6.987 6.987 0 0 0 2.325-.746 7.003 7.003 0 0 0-3.795-13.17 7.106 7.106 0 0 0-1.923.42A7.02 7.02 0 0 0 4.255 6H6a.5.5 0 0 1 0 1H3.5a.502.502 0 0 1-.5-.5Zm4.5 1.467c0-.93.98-1.535 1.812-1.117l4.04 2.033c.917.462.917 1.772 0 2.234l-4.04 2.032A1.25 1.25 0 0 1 7.5 12.034V7.967Zm1.362-.223a.25.25 0 0 0-.362.223v4.066a.25.25 0 0 0 .362.223l4.04-2.033a.25.25 0 0 0 0-.446l-4.04-2.033Z"/></svg>
